X:4
T:My Bonny Boy
F:http://www.vwml.org/record/LEB/2/66/4
C:Mrs. Vaisey (gardener's wife
C:Collected by Lucy E. Broadwood,
C:Sept 1892, at Adwell, nr. Tetsworth, Oxon.
Z:[Dorian Mode]
L:1/8
Q:1/4=110
M:3/4
I:linebreak $
K:C
"^(Editorial suggestion)  " E2 | F2 E2 D2 | d2 c2 d2 | A3 B cA | (F2 E2) DE | F2 F2 (FA) | 
GF EF G2 |$ A6- | A2 z2 E2 | F2 E2 D2 | d2 c2 dB | A3 B cA | F2 E2 FG | A2 d2 cB |$ A2 D2 E2 | 
"^molto rit." (FG) A2 BG | A4"^a tempo" (3ABc | d2 AB c2 | BA G2 A2 | D6- | D4 |] 
T:Banks Of Sweet Primroses
F:http://www.vwml.org/record/LEB/2/66/5
C:Mrs. Vaisey (gardener's wife)
C:
C:Collected by Lucy E. Broadwood,
C:Sept 1892, at Adwell, nr. Tetsworth, Oxon.
L:1/8
Q:1/4=70
M:3/4
I:linebreak $
K:F
"^(Editorial suggestion)  " C | (FE) F3 G | A (G/F/) (FE) C C | B B (AG) F3/2 D/ | 
(EF) !fermata!G3 A |$ (Bd) c2 F3/2 G/ | (AG) (FE) !fermata!C G | (F/E/ D/C/) (FA cB) | (AG) F3 |] 
T:Barbara Allen
F:http://www.vwml.org/record/LEB/2/66/6
C:Mrs. Vaisey (gardener's wife)
C:
C:Collected by Lucy E. Broadwood,
C:Sept 1892, at Adwell, nr. Tetsworth, Oxon.
L:1/8
Q:1/4=100
M:3/4
I:linebreak $
K:F
C | FF D2 EF | GE C3 C | EG A2 GF | (AG) z2 z A | cc AG z F |$ (AF) D3 F | EG C2 EG | F A4 z | 
w: |||||||* * Bar- ba- ra|Al- len,|
Gc- c2 z B |"^(a)" AF (CF) AB | AF z2 z ||$ C | FF D2 EF | GE C3 C | EG A2 GF | (AG) z2 z A | 
w: Al- len, _ her|name was Bar- * ba- ra|Al- len.||||||
cc (AG) z F |$ (AF) D3 F | EG C2 EG | F A4 z | Gc- c2 z B |"^(a) var." AF (DF) AB | AF z2 z |] 
w: ||* * Bar- ba- ra|Al- len,|Al- len, _ her|name was Bar- * ba- ra|Al- len.|

